plugins/kotlin/frontend-independent/resources/org/jetbrains/kotlin/idea/icons/annotationKotlin.svg

<?xml version="1.0" encoding="utf-8"?>
<!-- Generator: Adobe Illustrator 24.1.2, SVG Export Plug-In . SVG Version: 6.00 Build 0)  -->
<svg version="1.2" baseProfile="tiny" id="Layer_1" xmlns="http://www.w3.org/2000/svg" xmlns:xlink="http://www.w3.org/1999/xlink"
	 x="0px" y="0px" viewBox="0 0 16 16" overflow="visible" xml:space="preserve">
<g>
	<path fill-rule="evenodd" fill="#62B543" fill-opacity="0.6" d="M8,15c-3.8660002,0-7-3.1339998-7-7s3.1339998-7,7-7
		s7,3.1339998,7,7H8V15z"/>
	<path fill-rule="evenodd" fill="#231F20" fill-opacity="0.7" d="M8,9.3254614v0.6693287
		C7.9629521,9.9982634,7.9259858,10,7.8891001,10c-0.8094482,0-1.8889999-0.0789003-1.8889999-1.9998999
		c0-1.6796656,1.4558325-2,2-2c0.1529999,0,1.7449999,0.0549998,1.8239994,0.079L9.751235,8H8.766983
		c0.002511-0.0351539,0.0045547-0.0708008,0.0061169-0.1069002L8.8421001,6.6991L8.8001003,6.6890998
		c-0.1150007-0.027-0.2020006-0.0409999-0.3000002-0.0519996C8.4020996,6.6271,8.3041,6.6220999,8.2020998,6.6220999
		c-0.224,0-0.4159999,0.046-0.5739999,0.1389999c-0.1549997,0.0900002-0.283,0.2130003-0.382,0.3630004
		C7.1511002,7.2721,7.0811,7.4411001,7.0391002,7.6261001C6.9970999,7.8091002,6.9761,7.9960999,6.9761,8.1841002
		c0,0.4019995,0.073,0.6879997,0.2210002,0.8739996C7.3491001,9.2481003,7.5541,9.3451004,7.8051,9.3451004
		C7.8735833,9.3451004,7.9386215,9.3385534,8,9.3254614z M11.9819336,8h-0.9611921
		c0.0305014-0.2108235,0.0393581-0.3840437,0.0393581-0.4528999c0-2.6396904-2.3519993-2.802-2.7439995-2.802
		c-0.5450001,0-3.3725576,0.1057911-3.3725576,3.2554998c0,0.5834236,0,3.2455006,2.9455576,3.2455006
		c0.0214744,0,0.0595341-0.0023184,0.1108999-0.0067215v0.7599974c-0.0336089,0.0004787-0.0675759,0.0007238-0.1019001,0.0007238
		c-0.7423382,0-3.8959999,0-3.8959999-3.9995003s3.6653194-3.9994998,4.3140001-3.9994998
		c0.3349562,0,3.684,0.0853291,3.684,3.5559998C12.0001001,7.7146792,11.9938021,7.8620939,11.9819336,8z"/>
	<polygon fill="#7F52FF" points="16,9 9,9 9,16 16,16 12.5,12.5 	"/>
</g>
</svg>

<svg width="16" height="16" viewBox="0 0 16 16" fill="none" xmlns="http://www.w3.org/2000/svg">
<g id="annotationKotlin">
<g id="&#226;&#140;&#152;/modifier/kotlin">
<path id="&#226;&#140;&#152;/modifier/kotlin_2" d="M16 16H9V9H16L12.4 12.4L16 16Z" fill="#B99BF8"/>
</g>
<path id="Vector" fill-rule="evenodd" clip-rule="evenodd" d="M8 15C4.134 15 1 11.866 1 8C1 4.134 4.134 1 8 1C11.866 1 15 4.134 15 8H8V15Z" fill="#62B543" fill-opacity="0.6"/>
<path id="Vector_2" fill-rule="evenodd" clip-rule="evenodd" d="M8.00001 9.32546V9.99479C7.96296 9.99826 7.92599 10 7.88911 10C7.07966 10 6.00011 9.9211 6.00011 8.0001C6.00011 6.32043 7.45594 6.0001 8.00011 6.0001C8.15311 6.0001 9.74511 6.0551 9.82411 6.0791L9.75124 8H8.76699C8.7695 7.96484 8.77154 7.9292 8.77311 7.8931L8.84211 6.6991L8.80011 6.6891C8.68511 6.6621 8.59811 6.6481 8.50011 6.6371C8.40211 6.6271 8.30411 6.6221 8.20211 6.6221C7.97811 6.6221 7.78611 6.6681 7.62811 6.7611C7.47311 6.8511 7.34511 6.9741 7.24611 7.1241C7.15111 7.2721 7.08111 7.4411 7.03911 7.6261C6.99711 7.8091 6.97611 7.9961 6.97611 8.1841C6.97611 8.5861 7.04911 8.8721 7.19711 9.0581C7.34911 9.2481 7.55411 9.3451 7.80511 9.3451C7.87359 9.3451 7.93863 9.33855 8.00001 9.32546ZM11.9819 8H11.0207C11.0512 7.78917 11.0601 7.61595 11.0601 7.5471C11.0601 4.90741 8.70811 4.7451 8.31611 4.7451C7.77111 4.7451 4.94355 4.85089 4.94355 8.0006C4.94355 8.58402 4.94355 11.2461 7.88911 11.2461C7.91058 11.2461 7.94864 11.2438 8.00001 11.2394V11.9994C7.9664 11.9999 7.93243 12.0001 7.89811 12.0001C7.15577 12.0001 4.00211 12.0001 4.00211 8.0006C4.00211 4.0011 7.66743 4.0011 8.31611 4.0011C8.65106 4.0011 12.0001 4.08643 12.0001 7.5571C12.0001 7.71468 11.9938 7.86209 11.9819 8Z" fill="#231F20" fill-opacity="0.7"/>
</g>
</svg>
